src/lib/packages/icons/src/assets/filled/phone-missed.svg

<svg width="24" height="24" viewBox="0 0 24 24" fill="none" xmlns="http://www.w3.org/2000/svg">
<path d="M21.2428 19.455C20.9278 19.904 20.3449 20.082 19.8139 19.947L17.0739 19.255C16.1069 19.011 15.501 18.05 15.695 17.07L16.051 15.269C13.478 14.214 10.5679 14.219 7.98894 15.279L8.34905 17.066C8.54705 18.048 7.94205 19.013 6.97405 19.261L4.24993 19.958C3.68293 20.103 3.08687 19.875 2.76287 19.388L2.75383 19.375C1.29583 17.199 2.02504 14.239 4.31804 12.979C9.19704 10.299 15.1028 10.345 19.9408 13.097C22.0468 14.295 22.6388 17.47 21.2428 19.455ZM17.53 3.47C17.237 3.177 16.7619 3.177 16.4689 3.47L12.883 7.056C12.395 7.543 11.6039 7.543 11.1149 7.056L8.80901 4.75H9.99993C10.4139 4.75 10.7499 4.414 10.7499 4C10.7499 3.586 10.4139 3.25 9.99993 3.25H6.99993C6.90193 3.25 6.80482 3.27001 6.71282 3.30801C6.52982 3.38401 6.38281 3.52999 6.30681 3.71399C6.26881 3.80599 6.24895 3.90301 6.24895 4.00101V7.00101C6.24895 7.41501 6.58495 7.75101 6.99895 7.75101C7.41295 7.75101 7.74895 7.41501 7.74895 7.00101V5.81201L10.0549 8.11801C10.5909 8.65401 11.295 8.922 11.999 8.922C12.703 8.922 13.407 8.65401 13.943 8.11801L17.529 4.53201C17.823 4.23801 17.823 3.762 17.53 3.47Z" fill="currentColor"/>
</svg>

<svg xmlns="http://www.w3.org/2000/svg" width="24" height="24" fill="none"><path fill="currentColor" d="M21.243 19.455c-.315.449-.898.627-1.43.492l-2.74-.692a1.877 1.877 0 0 1-1.378-2.185l.356-1.801a10.64 10.64 0 0 0-8.062.01l.36 1.787a1.881 1.881 0 0 1-1.375 2.195l-2.724.697a1.376 1.376 0 0 1-1.487-.57l-.01-.013c-1.457-2.176-.728-5.136 1.565-6.396a15.996 15.996 0 0 1 15.623.118c2.106 1.198 2.698 4.373 1.302 6.358ZM17.53 3.47a.75.75 0 0 0-1.061 0l-3.586 3.586a1.253 1.253 0 0 1-1.768 0L8.809 4.75h1.19a.75.75 0 0 0 0-1.5H7a.751.751 0 0 0-.75.751v3a.75.75 0 0 0 1.5 0V5.812l2.306 2.306A2.74 2.74 0 0 0 12 8.922a2.74 2.74 0 0 0 1.944-.804l3.586-3.586a.75.75 0 0 0 .001-1.062Z"/></svg>
